X: 281
T:Salve regina
N: Derived from Jos2504-Salve_regina.krn
C: Josquin des Prez
%%abc-version 2.0
%%abcx-abcm2ps-target-version 5.9.1 (29 Sep 2008)
%%abc-creator hum2abc beta
%%abcx-conversion-date 2019/02/12 16:15:52
%%abc-edited-by Jesse Rodin
%%abc-edited-by Will Watson 06/07/2011
%%abcx-initial-encoding-date 2011/06/07/
%%humdrum-veritas 2911268744
%%humdrum-veritas-data 3438997325
%%linebreak <none>
%%barnumbers 0
L: 1/4
M: 2/1
Q: 1/2=120
%%staves [1 2 3 4]
V: 1 clef=treble
V: 2 clef=treble
V: 3 clef=treble-8
V: 4 clef=bass
K: C
[V:1] z8 | 
[V:2] z8 | 
[V:3] z4d4 | 
[V:4] A,4G,4 | 
[V:1] z8 | 
[V:2] z4A4 | 
[V:3] c4d4 | 
[V:4] A,4D,4 | 
[V:1] d4c4 | 
[V:2] G4A4 | 
[V:3] G4z4 | 
[V:4] z8 | 
[V:1] d4G4 | 
[V:2] D4z4 | 
[V:3] z4z2G2 | 
[V:4] z2D,2E,2G,2 | 
[V:1] z4d4 | 
[V:2] A4G3F | 
[V:3] A2c2_B3A | 
[V:4] F,3E,G,4 | 
[V:1] c3_BAGB2- | 
[V:2] EDF3ED2- | 
[V:3] c4d4 | 
[V:4] A,4D,4 | 
[V:1] BAG4^F2 | 
[V:2] D2^C2D4 | 
[V:3] G4A4 | 
[V:4] E,4D,4 | 
[V:1] G4z2F2 | 
[V:2] z2C2D2F2 | 
[V:3] G4A4 | 
[V:4] E,4D,4 | 
[V:1] G2_B2A3G | 
[V:2] E3DF4 | 
[V:3] G4z2c2 | 
[V:4] z2G,2F,2A,2 | 
[V:1] _B4c4 | 
[V:2] G4A3G | 
[V:3] _B2d2c2_e2 | 
[V:4] G,2_B,2A,4 | 
[V:1] d3c_BAG2 | 
[V:2] FED2G4 | 
[V:3] d4G2c2- | 
[V:4] D,2G,4E,2 | 
[V:1] c4_B2A2- | 
[V:2] F2E3DD2- | 
[V:3] c2A2d4 | 
[V:4] A,4z2D,2 | 
[V:1] AGG4^F2 | 
[V:2] D2C2D4 | 
[V:3] z2G2A4 | 
[V:4] E,4D,4 | 
[V:1] G4z4 | 
[V:2] z8 | 
[V:3] G4z4 | 
[V:4] z4A,4 | 
[V:1] z8 | 
[V:2] z8 | 
[V:3] d4c4 | 
[V:4] G,4A,4 | 
[V:1] z4d4 | 
[V:2] A4G4 | 
[V:3] d4G4 | 
[V:4] D,4z4 | 
[V:1] c4d4 | 
[V:2] A4D4 | 
[V:3] z8 | 
[V:4] z4z2D,2 | 
[V:1] G4z4 | 
[V:2] z4A4 | 
[V:3] z2G2A2c2 | 
[V:4] E,2G,2F,3E, | 
[V:1] d4c3_B | 
[V:2] G3FEDF2- | 
[V:3] _B3Ac4 | 
[V:4] G,4A,4 | 
[V:1] AG_B3AG2- | 
[V:2] FED4^C2 | 
[V:3] d4G4 | 
[V:4] D,4E,4 | 
[V:1] G2^F2G4 | 
[V:2] D4z2C2 | 
[V:3] A4G4 | 
[V:4] D,4E,4 | 
[V:1] z2F2G2_B2 | 
[V:2] D2F2E3D | 
[V:3] A4G4 | 
[V:4] D,4z2G,2 | 
[V:1] A3G_B4 | 
[V:2] F4G4 | 
[V:3] z2c2_B2d2 | 
[V:4] F,2A,2G,2_B,2 | 
[V:1] c4d3c | 
[V:2] A3GFED2 | 
[V:3] c2_e2d4 | 
[V:4] A,4D,2G,2- | 
[V:1] _BAG2c4 | 
[V:2] G4F2E2- | 
[V:3] G2c4A2 | 
[V:4] G,2E,2A,4 | 
[V:1] _B2A3GG2- | 
[V:2] EDD4^C2 | 
[V:3] d4z2G2 | 
[V:4] z2D,2E,4 | 
[V:1] G2^F2G4 | 
[V:2] D4z4 | 
[V:3] A4G4 | 
[V:4] D,4z4 | 
[V:1] z4G4 | 
[V:2] D4C4 | 
[V:3] z8 | 
[V:4] z8 | 
[V:1] F4_B2d2 | 
[V:2] F2A2G3F | 
[V:3] z4z2_B2 | 
[V:4] z2F,2G,2_B,2 | 
[V:1] c3_Bd4 | 
[V:2] A4z4 | 
[V:3] c2_e2d4 | 
[V:4] A,4D,4 | 
[V:1] z4c2c2- | 
[V:2] G2G4F2 | 
[V:3] G4z2c2 | 
[V:4] z2G,2A,4 | 
[V:1] c2_B2c4 | 
[V:2] G4A4 | 
[V:3] d4c4 | 
[V:4] G,4z4 | 
[V:1] d4c2_B2 | 
[V:2] G2F2E4 | 
[V:3] z4c4 | 
[V:4] G,4A,4 | 
[V:1] A4z4 | 
[V:2] z4G4 | 
[V:3] d4G4 | 
[V:4] D,4z4 | 
[V:1] c4_B2A2 | 
[V:2] F2E2D3E/F/ | 
[V:3] z8 | 
[V:4] z4z2D,2 | 
[V:1] G3A/_B/c4 | 
[V:2] G4z2C2 | 
[V:3] z2G2A2c2 | 
[V:4] E,2G,2F,2A,2 | 
[V:1] z2F2G2_B2 | 
[V:2] D2F2E2D2 | 
[V:3] _B2d2c2G2 | 
[V:4] G,2D,2E,2G,2 | 
[V:1] A2G2_B2A2- | 
[V:2] F2E3DD2- | 
[V:3] A2c2_B2F2 | 
[V:4] F,2C,2D,4 | 
[V:1] AGG4^F2 | 
[V:2] D2C2D4 | 
[V:3] G4A4 | 
[V:4] E,4D,4 | 
[V:1] G4z4 | 
[V:2] z4D4 | 
[V:3] G4z4 | 
[V:4] z8 | 
[V:1] G4F4 | 
[V:2] C4F2A2 | 
[V:3] z8 | 
[V:4] z8 | 
[V:1] _B2d2c3B | 
[V:2] G3FA4 | 
[V:3] z8 | 
[V:4] z4z2A,2 | 
[V:1] d4z4 | 
[V:2] z4c4 | 
[V:3] z2d2e4 | 
[V:4] B,4A,4 | 
[V:1] f4d2e2- | 
[V:2] A2B3AA2- | 
[V:3] d4z4 | 
[V:4] z4z2A,2 | 
[V:1] edd4^c2 | 
[V:2] A2^G2A4 | 
[V:3] z2d2e4 | 
[V:4] B,4A,4 | 
[V:1] d4z2G2 | 
[V:2] z2D2E2G2 | 
[V:3] d4G4 | 
[V:4] D,4z4 | 
[V:1] A2c2_B3A | 
[V:2] F3EG4 | 
[V:3] z8 | 
[V:4] z4z2G,2 | 
[V:1] c4z4 | 
[V:2] z4D4 | 
[V:3] z2c2d4 | 
[V:4] A,4G,4 | 
[V:1] G4A4 | 
[V:2] E4F4 | 
[V:3] c4z4 | 
[V:4] z4z2F,2 | 
[V:1] _B4A2G2- | 
[V:2] E2D3CC2- | 
[V:3] z2_B2c4 | 
[V:4] G,4C,4 | 
[V:1] GFF4E2 | 
[V:2] C2B,2C4 | 
[V:3] F4G4 | 
[V:4] D,4C,4 | 
[V:1] F4z2F2 | 
[V:2] z2C2D4 | 
[V:3] F4z4 | 
[V:4] z4z2D,2 | 
[V:1] G4F4 | 
[V:2] C4z2F2 | 
[V:3] z2G2A4 | 
[V:4] E,4D,4 | 
[V:1] z2_B2c4 | 
[V:2] G4A4 | 
[V:3] G4z4 | 
[V:4] z8 | 
[V:1] d4c3_B | 
[V:2] G3FEDF2- | 
[V:3] z4z2c2 | 
[V:4] z2G,2A,2A,2 | 
[V:1] AG_B3AG2- | 
[V:2] FED4^C2 | 
[V:3] d2d2G4 | 
[V:4] D,4E,4 | 
[V:1] G2^F2G4 | 
[V:2] D4z4 | 
[V:3] A4G4 | 
[V:4] D,4z2G,2 | 
[V:1] z4_B4 | 
[V:2] F4G4 | 
[V:3] z2c2d4 | 
[V:4] A,4G,4 | 
[V:1] c4_B2d2 | 
[V:2] F2A2G3F | 
[V:3] c4d4 | 
[V:4] A,4_B,4 | 
[V:1] c3_Bd4 | 
[V:2] A4z4 | 
[V:3] _e4d4 | 
[V:4] A,4D4 | 
[V:1] z4z2f2 | 
[V:2] z2c2B2A2 | 
[V:3] g4f4 | 
[V:4] C4D4 | 
[V:1] e2d2f2e2- | 
[V:2] c2B3AA2- | 
[V:3] g4f2c2 | 
[V:4] C2G,2A,4 | 
[V:1] edd4^c2 | 
[V:2] A2^G2A4 | 
[V:3] d4e4 | 
[V:4] B,4A,4 | 
[V:1] d4z2g2- | 
[V:2] z2d4d2 | 
[V:3] d4G4 | 
[V:4] D,4z4 | 
[V:1] g2g2f2e2- | 
[V:2] c2B3AA2- | 
[V:3] z4z2c2 | 
[V:4] z2G,2A,4 | 
[V:1] edd4^c2 | 
[V:2] A2G2A4 | 
[V:3] d4e4 | 
[V:4] B,4A,4 | 
[V:1] d4z2g2- | 
[V:2] z2d4c2 | 
[V:3] d4z4 | 
[V:4] z8 | 
[V:1] g2f2e2d2- | 
[V:2] B2A3GG2- | 
[V:3] z4z2_B2 | 
[V:4] z2F,2G,2G,2 | 
[V:1] dcc4=B2 | 
[V:2] G2^F2G4 | 
[V:3] c2c2d4 | 
[V:4] A,4G,4 | 
[V:1] c4z2F2 | 
[V:2] z2C2D2F2 | 
[V:3] c4z4 | 
[V:4] z8 | 
[V:1] G2_B2A2G2- | 
[V:2] E2D3CC2- | 
[V:3] z8 | 
[V:4] z4z2C,2 | 
[V:1] GFF4E2 | 
[V:2] C2B,2C4 | 
[V:3] z2F2G4 | 
[V:4] D,4C,4 | 
[V:1] F4z2F2 | 
[V:2] z2C2D2F2 | 
[V:3] F4z4 | 
[V:4] z8 | 
[V:1] G2_B2A2c2 | 
[V:2] E2G2F2E2- | 
[V:3] z8 | 
[V:4] z4z2C,2 | 
[V:1] _B2A3GG2- | 
[V:2] EDD4^C2 | 
[V:3] z2F2G2G2 | 
[V:4] D,2D,2E,4 | 
[V:1] G2^F2G4 | 
[V:2] D4z4 | 
[V:3] A4G4 | 
[V:4] D,4z4 | 
[V:1] z4D4 | 
[V:2] A,4B,2D2 | 
[V:3] z8 | 
[V:4] z8 | 
[V:1] E2G2F3E | 
[V:2] C3B,D4 | 
[V:3] z8 | 
[V:4] z4z2D,2 | 
[V:1] G4z2F2 | 
[V:2] z2C2D2F2 | 
[V:3] z2G2A4 | 
[V:4] E,4D,4 | 
[V:1] G2_B2A2G2- | 
[V:2] E2D3CC2- | 
[V:3] G4z2E2 | 
[V:4] z2B,,2C,4 | 
[V:1] GFF4E2 | 
[V:2] C2B,2C4 | 
[V:3] F4G4 | 
[V:4] D,4C,4 | 
[V:1] F4z4 | 
[V:2] z4G4 | 
[V:3] F4z2G2 | 
[V:4] z2D,2E,4 | 
[V:1] c4_B2A2 | 
[V:2] F2E2D3E/F/ | 
[V:3] A4_B4 | 
[V:4] F,4G,4 | 
[V:1] G3A/_B/c4 | 
[V:2] G4F2E2- | 
[V:3] c4z4 | 
[V:4] z4z2C,2 | 
[V:1] _B2A3GG2- | 
[V:2] EDD4^C2 | 
[V:3] z2F2G4 | 
[V:4] D,4E,4 | 
[V:1] G2^F2G4 | 
[V:2] D4z4 | 
[V:3] A4G4 | 
[V:4] D,4z4 | 
[V:1] z4G2_B2 | 
[V:2] D2F2E2G2 | 
[V:3] z4G4 | 
[V:4] D,4G,4 | 
[V:1] A2c2_B2d2 | 
[V:2] F2A2G3F | 
[V:3] c4d4 | 
[V:4] A,4_B,4 | 
[V:1] c3_Bd4 | 
[V:2] A4z2A2- | 
[V:3] _e4d4 | 
[V:4] A,4z2F,2 | 
[V:1] z2d3cc2- | 
[V:2] AGG4^F2 | 
[V:3] z2_B2c4 | 
[V:4] G,4A,4 | 
[V:1] c2=B2c4 | 
[V:2] G4z2F2 | 
[V:3] d4c4 | 
[V:4] G,4z2F,2 | 
[V:1] z2_B2A2G2- | 
[V:2] E2D3CC2- | 
[V:3] z2_B2c4 | 
[V:4] G,4C,4 | 
[V:1] GFF4E2 | 
[V:2] C2B,2C4 | 
[V:3] F4G4 | 
[V:4] D,4C,4 | 
[V:1] F4z2_B2- | 
[V:2] z2F4D2 | 
[V:3] F4_B4 | 
[V:4] F,4D,2G,2- | 
[V:1] B2G2c4 | 
[V:2] G4F2E2- | 
[V:3] G2c4A2 | 
[V:4] G,2E,2A,4 | 
[V:1] _B2A3GG2- | 
[V:2] EDD4^C2 | 
[V:3] d4z2G2 | 
[V:4] z2D,2E,4 | 
[V:1] G2^F2G4 | 
[V:2] D4z4 | 
[V:3] A4G4 | 
[V:4] D,4z2G,2 | 
[V:1] z4d4 | 
[V:2] A4G4 | 
[V:3] z2c2d4 | 
[V:4] A,4B,4 | 
[V:1] c4d4 | 
[V:2] A4z2A2 | 
[V:3] e4d4 | 
[V:4] A,4z4 | 
[V:1] z2d2e4 | 
[V:2] B4c4 | 
[V:3] z8 | 
[V:4] z8 | 
[V:1] f4g4 | 
[V:2] d4c2B2- | 
[V:3] z8 | 
[V:4] z4z2G,2 | 
[V:1] f2e3dd2- | 
[V:2] BAA4^G2 | 
[V:3] z2c2d4 | 
[V:4] A,4B,4 | 
[V:1] d2^c2d4 | 
[V:2] A4z4 | 
[V:3] e4d4 | 
[V:4] A,4z2G,2 | 
[V:1] z4d4 | 
[V:2] A4G4 | 
[V:3] z2c2d4 | 
[V:4] A,4B,4 | 
[V:1] c4d4 | 
[V:2] A4z2A2 | 
[V:3] e4d4 | 
[V:4] A,4z4 | 
[V:1] z2d2e4 | 
[V:2] B4c4 | 
[V:3] z8 | 
[V:4] z8 | 
[V:1] f4g4 | 
[V:2] d4c2B2- | 
[V:3] z8 | 
[V:4] z4z2G,2 | 
[V:1] f2e3dd2- | 
[V:2] BAA4^G2 | 
[V:3] z2c2d4 | 
[V:4] A,4B,4 | 
[V:1] d2^c2d4 | 
[V:2] A4z4 | 
[V:3] e4d4 | 
[V:4] A,4z2G,2 | 
[V:1] z4d4 | 
[V:2] A4G4 | 
[V:3] z2c2d4 | 
[V:4] A,4B,4 | 
[V:1] c4d4 | 
[V:2] A4z2D2 | 
[V:3] e4d4 | 
[V:4] A,4D,2G,2- | 
[V:1] z2G2A4 | 
[V:2] E4z2C2 | 
[V:3] G2c3_BAG | 
[V:4] G,F,E,D,C,2F,2- | 
[V:1] z2F2_B4 | 
[V:2] F4E2D2- | 
[V:3] F2_B4G2 | 
[V:4] F,2D,2G,4 | 
[V:1] A2G3FF2- | 
[V:2] DCC4B,2 | 
[V:3] c4z2F2 | 
[V:4] z2C,2D,4 | 
[V:1] F2E2F4 | 
[V:2] C4z4 | 
[V:3] G4F4 | 
[V:4] C,4z2F,2 | 
[V:1] z4c4 | 
[V:2] G4F4 | 
[V:3] z2_B2c4 | 
[V:4] G,4A,4 | 
[V:1] _B4c4 | 
[V:2] G4A4 | 
[V:3] d4_e4 | 
[V:4] _B,4A,4 | 
[V:1] d4z2G2- | 
[V:2] z2D4C2 | 
[V:3] d4z2G2 | 
[V:4] z2D,2E,4 | 
[V:1] G2F2G2_B2 | 
[V:2] D2F2E2G2 | 
[V:3] A4G4 | 
[V:4] D,4z2G,2 | 
[V:1] A2c2_B2A2 | 
[V:2] F2E2G2F2 | 
[V:3] z2c2d4 | 
[V:4] A,4G,2D,2 | 
[V:1] c2_B2A2G2 | 
[V:2] E2D2F2E2- | 
[V:3] c2G2[M:2/1](3A3_Bc2 | 
[V:4] [M:2/1](3:2:6E,3F,G,2F,3E,C,2 | 
[V:1] _B2A3GG2- | 
[V:2] EDD4^C2 | 
[V:3] [M:2/1]_B2(3:2:2AF2G4 | 
[V:4] [M:2/1]D,4E,4 | 
[V:1] G2^F2G4- | 
[V:2] D8- | 
[V:3] A4G4 | 
[V:4] D,4z2G,2 | 
[V:1] G8- | 
[V:2] D8- | 
[V:3] z2d2d4- | 
[V:4] G,8 | 
[V:1] G8 |]  
[V:2] D8 |]  
[V:3] d4d4 |]  
[V:4] G,8 |]  



